images/stage-fingerprint.svg

<?xml version="1.0" encoding="UTF-8" standalone="no"?>
<svg width="60px" height="60px" viewBox="0 0 60 60" version="1.1" xmlns="http://www.w3.org/2000/svg" xmlns:xlink="http://www.w3.org/1999/xlink" xmlns:sketch="http://www.bohemiancoding.com/sketch/ns">
    <!-- Generator: Sketch 3.3.3 (12081) - http://www.bohemiancoding.com/sketch -->
    <title>stage-fingerprint</title>
    <desc>Created with Sketch.</desc>
    <defs></defs>
    <g id="Page-1" stroke="none" stroke-width="1" fill="none" fill-rule="evenodd" sketch:type="MSPage">
        <g id="stage-fingerprint" sketch:type="MSArtboardGroup" fill="#9B9B9B">
            <path d="M13.04,48.9754098 L11.44,48.6540984 C11.76,46.9672131 10.88,45.2803279 10,43.6737705 C9.76,43.1918033 9.44,42.7098361 9.28,42.2278689 C8.32,40.3 7.68,38.6934426 7.2,37.1672131 L8.72,36.6852459 C9.2,38.1311475 9.84,39.7377049 10.72,41.5852459 C10.88,41.9868852 11.2,42.4688525 11.44,42.8704918 C12.32,44.557377 13.52,46.7262295 13.04,48.9754098 Z M52.88,37.8098361 L51.36,37.3278689 C52.08,35.0786885 52.4,32.6688525 52.4,30.0983607 C52.4,23.4311475 49.68,17.1655738 44.8,12.9885246 L45.84,11.7836066 C51.04,16.2016393 54,22.9491803 54,30.0983607 C54,32.8295082 53.6,35.4 52.88,37.8098361 Z M6.72,35.4803279 C6.24,33.6327869 6,31.8655738 6,30.0983607 C6,22.2262295 9.84,14.9163934 16.24,10.3377049 L17.2,11.6229508 C11.2,15.8803279 7.6,22.7885246 7.6,30.0983607 C7.6,31.704918 7.84,33.3114754 8.24,35.0786885 L6.72,35.4803279 L6.72,35.4803279 Z M43.52,11.9442623 C39.76,9.13278689 35.04,7.60655738 30,7.60655738 C25.92,7.60655738 22,8.73114754 18.56,10.8196721 L17.76,9.45409836 C21.44,7.20491803 25.68,6 30,6 C35.36,6 40.4,7.60655738 44.48,10.6590164 L43.52,11.9442623 Z M44.72,49.8590164 L43.28,49.1360656 C43.92,47.8508197 44.32,47.3688525 46.96,44.7983607 C48.56,43.1918033 49.84,41.2639344 50.8,38.9344262 L52.32,39.4967213 C51.28,41.9868852 49.92,44.1557377 48.16,45.9229508 C45.52,48.4934426 45.28,48.7344262 44.72,49.8590164 Z M15.92,50.9836066 L14.4,50.4213115 C15.92,46.2442623 14.16,43.7540984 13.2,42.4688525 C12.8,41.9065574 12.4,41.3442623 12.08,40.7819672 L13.44,39.9786885 C13.76,40.5409836 14.08,41.0229508 14.48,41.504918 C15.52,42.7901639 17.76,46.0032787 15.92,50.9836066 Z M47.84,41.1836066 L46.48,40.3803279 C48.24,37.4885246 49.2,33.7934426 49.2,30.0983607 C49.2,27.2868852 48.64,24.6360656 47.44,22.0655738 L48.88,21.4229508 C50.16,24.1540984 50.8,27.0459016 50.8,30.0983607 C50.8,34.1147541 49.76,38.0508197 47.84,41.1836066 Z M11.36,39.4163934 C9.92,36.5245902 9.2,33.3918033 9.2,30.0983607 C9.2,26.4032787 10.16,22.7885246 12,19.6557377 L13.36,20.4590164 C11.68,23.3508197 10.8,26.7245902 10.8,30.0983607 C10.8,33.1508197 11.44,36.042623 12.8,38.6934426 L11.36,39.4163934 L11.36,39.4163934 Z M46.88,20.8606557 C43.76,15.157377 38,11.3819672 31.6,10.9 L31.76,9.29344262 C38.72,9.8557377 44.88,13.8721311 48.32,20.057377 L46.88,20.8606557 L46.88,20.8606557 Z M14.08,19.2540984 L12.72,18.3704918 C16.64,12.6672131 23.12,9.21311475 30,9.21311475 L30.24,9.21311475 L30.24,10.8196721 L30,10.8196721 C23.68,10.8196721 17.68,13.952459 14.08,19.2540984 Z M41.12,51.3852459 L39.52,51.0639344 C40.4,46.7262295 42.88,44.3163934 44.64,42.4688525 C45.04,42.0672131 45.36,41.7459016 45.68,41.3442623 L46.88,42.3885246 C46.56,42.7901639 46.16,43.1114754 45.76,43.5131148 C44.08,45.4409836 41.84,47.6098361 41.12,51.3852459 Z M19.2,53.2327869 L17.68,52.7508197 C19.28,47.3688525 17.6,42.9508197 16.8,41.7459016 L18.16,40.8622951 C19.2,42.6295082 20.88,47.4491803 19.2,53.2327869 Z M43.04,41.6655738 L41.84,40.5409836 C44.64,37.6491803 46,34.1147541 46,30.0983607 C46,26.242623 44.64,22.547541 42.08,19.6557377 L43.28,18.6114754 C46,21.8245902 47.52,25.9213115 47.52,30.1786885 C47.6,34.5163934 46.08,38.452459 43.04,41.6655738 Z M15.76,40.4606557 C13.6,37.4885246 12.4,33.8737705 12.4,30.0983607 C12.4,25.2786885 14.32,20.7 17.84,17.3262295 L18.96,18.4508197 C15.76,21.5032787 14.08,25.6 14.08,30.0180328 C14.08,33.4721311 15.12,36.6852459 17.12,39.4967213 L15.76,40.4606557 L15.76,40.4606557 Z M41.04,18.5311475 C38.08,15.6393443 34.16,14.0327869 30,14.0327869 C26.32,14.0327869 22.96,15.2377049 20.08,17.4868852 L19.12,16.2016393 C22.24,13.7114754 26,12.4262295 30,12.4262295 C34.56,12.4262295 38.88,14.1934426 42.16,17.3262295 L41.04,18.5311475 Z M37.84,53.152459 L36.24,53.152459 C36.32,48.252459 38,43.9147541 39.52,42.7901639 C39.92,42.4688525 40.32,42.147541 40.72,41.7459016 L41.76,42.9508197 C41.36,43.352459 40.88,43.6737705 40.48,44.0754098 C39.6,44.7180328 37.92,48.3327869 37.84,53.152459 Z M34.4,54.1967213 L32.8,54.1967213 C32.8,49.3770492 33.92,46.0836066 36.08,42.9508197 L37.44,43.9147541 C35.36,46.8065574 34.4,50.1803279 34.4,54.1967213 Z M38.24,42.3885246 L36.96,41.3442623 C37.68,40.3803279 38.48,39.657377 38.96,39.095082 C39.2,38.8540984 39.44,38.6131148 39.6,38.452459 C41.68,36.2032787 42.8,33.1508197 42.8,30.0983607 C42.8,27.447541 42,24.8770492 40.48,22.7081967 L41.76,21.7442623 C43.52,24.1540984 44.4,27.0459016 44.4,30.0983607 C44.4,33.552459 43.12,36.9262295 40.88,39.5770492 C40.72,39.8180328 40.48,40.0590164 40.16,40.3 C39.6,40.8622951 38.96,41.504918 38.24,42.3885246 Z M20.4,41.8262295 C20.24,41.2639344 20,40.7016393 19.76,40.2196721 C19.44,39.657377 19.04,39.095082 18.56,38.5327869 C18,37.8901639 17.44,37.247541 17.12,36.4442623 C16.08,34.4360656 15.6,32.347541 15.6,30.0983607 C15.6,26.804918 16.72,23.5114754 18.88,20.9409836 L20.08,21.9852459 C18.24,24.2344262 17.2,27.1262295 17.2,30.0983607 C17.2,32.1065574 17.6,33.9540984 18.48,35.7213115 C18.8,36.3639344 19.28,36.8459016 19.76,37.4885246 C20.32,38.1311475 20.8,38.7737705 21.2,39.4967213 C21.44,40.0590164 21.68,40.6213115 21.92,41.3442623 L20.4,41.8262295 L20.4,41.8262295 Z M39.52,21.5032787 C37.12,18.7721311 33.6,17.2459016 30,17.2459016 C26.64,17.2459016 23.52,18.5311475 21.12,20.8606557 L20,19.7360656 C22.64,17.0852459 26.24,15.6393443 30,15.6393443 C34.08,15.6393443 38,17.4065574 40.72,20.4590164 L39.52,21.5032787 Z M22.4,54.4377049 L20.8,54.1163934 C20.8,54.0360656 21.84,48.1721311 20.8,43.2721311 L22.4,42.9508197 C23.44,48.252459 22.4,54.1967213 22.4,54.4377049 Z M30,54.6786885 C29.84,52.1081967 30.08,49.1360656 30.72,46.4852459 L32.32,46.8065574 C31.76,49.2967213 31.52,52.1081967 31.68,54.5983607 L30,54.6786885 Z M32.64,45.3606557 L31.12,44.8786885 C32.08,41.6655738 33.44,39.4163934 35.2,38.2114754 C37.28,36.8459016 38.8,34.757377 39.36,32.347541 L40.88,32.7491803 C40.24,35.5606557 38.48,37.9704918 36.08,39.5770492 C34.64,40.5409836 33.44,42.5491803 32.64,45.3606557 Z M24.16,44.8786885 C23.6,41.9065574 22.48,39.7377049 21.44,37.8901639 C21.12,37.3278689 20.8,36.6852459 20.48,36.1229508 C19.6,34.2754098 19.12,32.347541 19.04,30.4196721 L20.64,30.3393443 C20.72,32.0262295 21.12,33.7934426 21.92,35.4 C22.16,35.9622951 22.48,36.5245902 22.8,37.0868852 C23.92,39.095082 25.12,41.3442623 25.68,44.557377 L24.16,44.8786885 L24.16,44.8786885 Z M41.12,31.0622951 L39.52,30.9016393 L39.52,30.0180328 C39.52,28.1704918 38.96,26.4032787 38,24.7967213 C36.56,22.547541 34.32,21.0213115 31.68,20.5393443 L32,18.9327869 C35.04,19.495082 37.68,21.2622951 39.36,23.9131148 C40.56,25.7606557 41.12,27.8491803 41.12,30.0180328 C41.2,30.4196721 41.2,30.7409836 41.12,31.0622951 L41.12,31.0622951 Z M20.72,28.8934426 L19.12,28.7327869 C19.44,25.3590164 21.12,22.4672131 23.92,20.6196721 C25.84,19.3344262 28.08,18.7721311 30.4,18.852459 L30.32,20.4590164 C28.4,20.3786885 26.4,20.9409836 24.8,21.9852459 C22.4,23.5114754 20.96,26.0016393 20.72,28.8934426 Z M25.52,54.4377049 L23.92,54.1163934 C24.48,51.2245902 24.64,48.6540984 24.4,46.3245902 L26,46.1639344 C26.24,48.7344262 26.08,51.3852459 25.52,54.4377049 Z M30.88,42.2278689 L29.28,42.0672131 C29.28,41.9065574 29.76,37.9704918 34,34.9983607 L34.88,36.2836066 C31.28,38.8540984 30.88,42.0672131 30.88,42.2278689 Z M36.08,35.4803279 L34.96,34.2754098 C35.84,33.4721311 36.4,31.9459016 36.4,30.0983607 C36.4,27.6885246 35.12,25.5196721 32.96,24.395082 L33.68,22.9491803 C36.4,24.395082 38,27.1262295 38,30.0983607 C38,31.4639344 37.76,33.9540984 36.08,35.4803279 Z M23.6,29.6163934 L22,29.5360656 C22.32,25.3590164 25.76,22.0655738 30,22.0655738 C30.8,22.0655738 31.6,22.2262295 32.4,22.4672131 L31.92,23.9934426 C31.28,23.752459 30.64,23.6721311 30,23.6721311 C26.64,23.6721311 23.84,26.3229508 23.6,29.6163934 Z M24.88,38.5327869 C24.8,38.0508197 24.56,36.8459016 24.32,36.2032787 C24.08,35.6409836 23.76,35.0786885 23.44,34.4360656 C22.88,33.3918033 22.24,32.2672131 22.08,31.0622951 L23.68,30.7409836 C23.84,31.704918 24.4,32.6688525 24.88,33.6327869 C25.28,34.2754098 25.6,34.9180328 25.84,35.5606557 C26.16,36.4442623 26.4,38.0508197 26.48,38.2114754 L24.88,38.5327869 Z M27.44,54.9196721 C27.44,53.795082 27.36,52.7508197 27.36,51.7065574 L28.96,51.6262295 C29.04,52.6704918 29.04,53.7147541 29.04,54.8393443 L27.44,54.9196721 Z M27.2,50.2606557 C27.12,49.2967213 27.12,48.4131148 27.04,47.5295082 C26.96,46.4852459 26.88,45.4409836 26.88,44.4770492 L28.48,44.3967213 C28.48,45.3606557 28.56,46.3245902 28.64,47.3688525 C28.72,48.252459 28.72,49.1360656 28.8,50.1 L27.2,50.2606557 Z M26.88,43.0311475 L26.88,42.2278689 C26.88,39.8983607 27.12,38.2918033 27.68,37.0065574 L29.2,37.6491803 C28.72,38.7737705 28.56,40.1393443 28.56,42.2278689 L28.56,42.9508197 L26.88,43.0311475 L26.88,43.0311475 Z M29.68,36.5245902 L28.4,35.6409836 C28.8,35.1590164 29.2,34.6770492 29.76,34.2754098 L29.92,34.195082 L30.08,34.1147541 C31.2,33.7934426 32.16,33.0704918 32.72,32.1065574 L34.08,32.9098361 C33.36,34.195082 32.08,35.2393443 30.64,35.6409836 C30.24,35.8819672 30,36.2032787 29.68,36.5245902 L29.68,36.5245902 Z M34.64,31.3032787 L33.04,30.9819672 C33.12,30.7409836 33.12,30.4196721 33.12,30.1786885 C33.12,28.8934426 32.32,27.6885246 31.12,27.2065574 L31.76,25.6803279 C33.6,26.4032787 34.8,28.1704918 34.8,30.1786885 C34.8,30.5 34.72,30.9016393 34.64,31.3032787 L34.64,31.3032787 Z M26.8,29.4557377 L25.2,29.295082 C25.44,27.0459016 27.6,25.2786885 30,25.2786885 L30.08,25.2786885 L30.08,26.8852459 L30,26.8852459 C28.4,26.8852459 26.96,28.0901639 26.8,29.4557377 Z M26.4,34.3557377 C25.76,33.4721311 25.44,31.8655738 25.28,30.9819672 L26.88,30.7409836 C27.04,31.9459016 27.36,32.9901639 27.68,33.4721311 L26.4,34.3557377 Z M28.48,32.4278689 C28.08,31.7852459 27.92,31.142623 27.92,30.5803279 C27.92,29.4557377 28.72,28.5721311 30,28.4114754 L30.24,28.4114754 C31.44,28.4114754 32.24,29.2147541 32.24,30.2590164 C32.24,30.5803279 32.16,30.9016393 32,31.3032787 L30.56,30.6606557 C30.64,30.5 30.64,30.3393443 30.64,30.2590164 C30.64,30.0180328 30.32,30.0180328 30.24,30.0180328 L30.16,30.0180328 C29.52,30.0983607 29.52,30.4196721 29.52,30.5803279 C29.52,30.8213115 29.6,31.142623 29.92,31.704918 L28.48,32.4278689 Z" id="Shape" sketch:type="MSShapeGroup"></path>
        </g>
    </g>
</svg>

<svg width="60" height="60" xmlns="http://www.w3.org/2000/svg"><g id="Page-1" stroke="none" stroke-width="1" fill="none" fill-rule="evenodd"><g id="stage-fingerprint" fill="#9B9B9B"><path d="M13.04 48.975l-1.6-.32c.32-1.688-.56-3.375-1.44-4.981-.24-.482-.56-.964-.72-1.446-.96-1.928-1.6-3.535-2.08-5.06l1.52-.483c.48 1.446 1.12 3.053 2 4.9.16.402.48.884.72 1.285.88 1.687 2.08 3.856 1.6 6.105zM52.88 37.81l-1.52-.482c.72-2.25 1.04-4.66 1.04-7.23 0-6.667-2.72-12.932-7.6-17.11l1.04-1.204C51.04 16.202 54 22.949 54 30.098c0 2.732-.4 5.302-1.12 7.712zM6.72 35.48C6.24 33.633 6 31.866 6 30.098c0-7.872 3.84-15.182 10.24-19.76l.96 1.285c-6 4.257-9.6 11.166-9.6 18.475 0 1.607.24 3.213.64 4.98l-1.52.402zm36.8-23.536C39.76 9.133 35.04 7.607 30 7.607c-4.08 0-8 1.124-11.44 3.213l-.8-1.366A23.495 23.495 0 0130 6c5.36 0 10.4 1.607 14.48 4.659l-.96 1.285zm1.2 37.915l-1.44-.723c.64-1.285 1.04-1.767 3.68-4.338 1.6-1.606 2.88-3.534 3.84-5.864l1.52.563c-1.04 2.49-2.4 4.659-4.16 6.426-2.64 2.57-2.88 2.811-3.44 3.936zm-28.8 1.125l-1.52-.563c1.52-4.177-.24-6.667-1.2-7.952-.4-.562-.8-1.125-1.12-1.687l1.36-.803c.32.562.64 1.044 1.04 1.526 1.04 1.285 3.28 4.498 1.44 9.479zm31.92-9.8l-1.36-.804c1.76-2.891 2.72-6.587 2.72-10.282 0-2.811-.56-5.462-1.76-8.032l1.44-.643a20.196 20.196 0 011.92 8.675c0 4.017-1.04 7.953-2.96 11.086zm-36.48-1.768c-1.44-2.891-2.16-6.024-2.16-9.318 0-3.695.96-7.31 2.8-10.442l1.36.803c-1.68 2.892-2.56 6.266-2.56 9.64 0 3.052.64 5.944 2 8.594l-1.44.723zm35.52-18.555C43.76 15.157 38 11.382 31.6 10.9l.16-1.607c6.96.563 13.12 4.58 16.56 10.764l-1.44.804zm-32.8-1.607l-1.36-.884c3.92-5.703 10.4-9.157 17.28-9.157h.24v1.607H30c-6.32 0-12.32 3.132-15.92 8.434zm27.04 32.131l-1.6-.321c.88-4.338 3.36-6.748 5.12-8.595.4-.402.72-.723 1.04-1.125l1.2 1.045c-.32.401-.72.722-1.12 1.124-1.68 1.928-3.92 4.097-4.64 7.872zM19.2 53.233l-1.52-.482c1.6-5.382-.08-9.8-.88-11.005l1.36-.884c1.04 1.768 2.72 6.587 1.04 12.37zm23.84-11.567l-1.2-1.125c2.8-2.892 4.16-6.426 4.16-10.443 0-3.855-1.36-7.55-3.92-10.442l1.2-1.045a17.913 17.913 0 014.24 11.568c.08 4.337-1.44 8.273-4.48 11.487zM15.76 40.46a17.61 17.61 0 01-3.36-10.363c0-4.82 1.92-9.398 5.44-12.772l1.12 1.125c-3.2 3.052-4.88 7.149-4.88 11.567 0 3.454 1.04 6.667 3.04 9.479l-1.36.964zm25.28-21.93A15.718 15.718 0 0030 14.033c-3.68 0-7.04 1.205-9.92 3.454l-.96-1.285c3.12-2.49 6.88-3.776 10.88-3.776 4.56 0 8.88 1.767 12.16 4.9l-1.12 1.205zm-3.2 34.621h-1.6c.08-4.9 1.76-9.237 3.28-10.362.4-.321.8-.642 1.2-1.044l1.04 1.205c-.4.401-.88.723-1.28 1.124-.88.643-2.56 4.258-2.64 9.077zm-3.44 1.045h-1.6c0-4.82 1.12-8.113 3.28-11.246l1.36.964c-2.08 2.892-3.04 6.265-3.04 10.282zm3.84-11.808l-1.28-1.045c.72-.964 1.52-1.687 2-2.249l.64-.643c2.08-2.249 3.2-5.301 3.2-8.354 0-2.65-.8-5.221-2.32-7.39l1.28-.964c1.76 2.41 2.64 5.302 2.64 8.354 0 3.454-1.28 6.828-3.52 9.479-.16.241-.4.482-.72.723-.56.562-1.2 1.205-1.92 2.089zm-17.84-.563a9.597 9.597 0 00-.64-1.606c-.32-.563-.72-1.125-1.2-1.687-.56-.643-1.12-1.285-1.44-2.089-1.04-2.008-1.52-4.096-1.52-6.346 0-3.293 1.12-6.587 3.28-9.157l1.2 1.044a12.874 12.874 0 00-2.88 8.113c0 2.009.4 3.856 1.28 5.623.32.643.8 1.125 1.28 1.768.56.642 1.04 1.285 1.44 2.008.24.562.48 1.124.72 1.847l-1.52.482zm19.12-20.323c-2.4-2.73-5.92-4.257-9.52-4.257-3.36 0-6.48 1.285-8.88 3.615L20 19.736c2.64-2.65 6.24-4.097 10-4.097 4.08 0 8 1.768 10.72 4.82l-1.2 1.044zM22.4 54.438l-1.6-.322c0-.08 1.04-5.944 0-10.844l1.6-.321c1.04 5.301 0 11.246 0 11.487zm7.6.24c-.16-2.57.08-5.542.72-8.193l1.6.322c-.56 2.49-.8 5.301-.64 7.791l-1.68.08zm2.64-9.317l-1.52-.482c.96-3.213 2.32-5.463 4.08-6.668 2.08-1.365 3.6-3.454 4.16-5.863l1.52.401c-.64 2.812-2.4 5.221-4.8 6.828-1.44.964-2.64 2.972-3.44 5.784zm-8.48-.482c-.56-2.972-1.68-5.141-2.72-6.989-.32-.562-.64-1.205-.96-1.767-.88-1.848-1.36-3.775-1.44-5.703l1.6-.08c.08 1.686.48 3.453 1.28 5.06.24.562.56 1.125.88 1.687 1.12 2.008 2.32 4.257 2.88 7.47l-1.52.322zm16.96-13.817l-1.6-.16v-.884c0-1.848-.56-3.615-1.52-5.221-1.44-2.25-3.68-3.776-6.32-4.258l.32-1.606c3.04.562 5.68 2.33 7.36 4.98 1.2 1.848 1.76 3.936 1.76 6.105.08.402.08.723 0 1.044zm-20.4-2.169l-1.6-.16c.32-3.374 2-6.266 4.8-8.113 1.92-1.286 4.16-1.848 6.48-1.768l-.08 1.607c-1.92-.08-3.92.482-5.52 1.526-2.4 1.526-3.84 4.017-4.08 6.908zm4.8 25.545l-1.6-.322c.56-2.891.72-5.462.48-7.791l1.6-.161c.24 2.57.08 5.221-.48 8.274zm5.36-12.21l-1.6-.16c0-.161.48-4.098 4.72-7.07l.88 1.286c-3.6 2.57-4 5.783-4 5.944zm5.2-6.748l-1.12-1.205c.88-.803 1.44-2.33 1.44-4.177 0-2.41-1.28-4.578-3.44-5.703l.72-1.446C36.4 24.395 38 27.126 38 30.1c0 1.365-.24 3.855-1.92 5.381zM23.6 29.616l-1.6-.08c.32-4.177 3.76-7.47 8-7.47.8 0 1.6.16 2.4.401l-.48 1.526c-.64-.24-1.28-.32-1.92-.32-3.36 0-6.16 2.65-6.4 5.943zm1.28 8.917c-.08-.482-.32-1.687-.56-2.33-.24-.562-.56-1.124-.88-1.767-.56-1.044-1.2-2.169-1.36-3.374l1.6-.321c.16.964.72 1.928 1.2 2.892.4.642.72 1.285.96 1.928.32.883.56 2.49.64 2.65l-1.6.322zm2.56 16.387c0-1.125-.08-2.17-.08-3.213l1.6-.08c.08 1.043.08 2.088.08 3.212l-1.6.08zm-.24-4.66c-.08-.963-.08-1.847-.16-2.73-.08-1.045-.16-2.089-.16-3.053l1.6-.08c0 .964.08 1.928.16 2.972.08.883.08 1.767.16 2.731l-1.6.16zm-.32-7.229v-.803c0-2.33.24-3.936.8-5.221l1.52.642c-.48 1.125-.64 2.49-.64 4.579v.723l-1.68.08zm2.8-6.506l-1.28-.884c.4-.482.8-.964 1.36-1.366l.16-.08.16-.08c1.12-.322 2.08-1.045 2.64-2.008l1.36.803c-.72 1.285-2 2.33-3.44 2.731-.4.241-.64.562-.96.884zm4.96-5.222l-1.6-.321c.08-.241.08-.562.08-.803 0-1.286-.8-2.49-2-2.972l.64-1.527c1.84.723 3.04 2.49 3.04 4.499 0 .321-.08.723-.16 1.124zm-7.84-1.847l-1.6-.16c.24-2.25 2.4-4.017 4.8-4.017h.08v1.606H30c-1.6 0-3.04 1.205-3.2 2.57zm-.4 4.9c-.64-.884-.96-2.49-1.12-3.374l1.6-.241c.16 1.205.48 2.25.8 2.731l-1.28.884zm2.08-1.928c-.4-.643-.56-1.285-.56-1.848 0-1.124.8-2.008 2.08-2.169h.24c1.2 0 2 .804 2 1.848 0 .321-.08.643-.24 1.044l-1.44-.642c.08-.161.08-.322.08-.402 0-.241-.32-.241-.4-.241h-.08c-.64.08-.64.402-.64.562 0 .241.08.563.4 1.125l-1.44.723z" id="Shape"/></g></g></svg>
